X:1
T:Ormiston, LM with hallelujah
T:Ormiston, LM with hallelujah
T:John Henry Spielman, 1881
T:Public Domain Courtesy of the Cyber Hymnal™
C:John Henry Spielman, 1881
Z:Public Domain
Z:Courtesy of the Cyber Hymnal™
%%score ( 1 2 ) ( 3 4 )
L:1/8
Q:1/4=108
M:4/4
K:F
V:1 treble 
V:2 treble 
V:3 bass 
V:4 bass 
V:1
 C2 | [CF]2 [DF]2 [CF]2 [CG]2 | [CA]3 [EG] F2 [EG]2 | [Ec]2 [Ac]2 [Gc]2 [Gd]2 | %4
 [Ge]3 [Fd] [Ec]2 [EG]2 | [EB]2 [FB]2 [GB]2 [Ac]2 | [GB]3 [FA] [EG]2 (AB) | %7
 [Fc]2 (FG) [FA]2 [FB]2 | [FA]3 [EG] F2 z2 | (GAB)[EA] G4 | F6 |] %11
V:2
 C2 | x8 | x4 F2 x2 | x8 | x8 | x8 | x6 F2 | x2 F2 x4 | x4 F2 x2 | E3 (D2 E2) x | F6 |] %11
V:3
 [F,A,]2 | [F,,A,]2 [B,,F,]2 [A,,F,]2 [C,E,]2 | F,3 [F,B,] [F,A,]2 [C,C]2 | %3
 [C,C]2 [F,C]2 [E,C]2 [G,=B,]2 | C3 [G,=B,] [C,C]2 [C,C]2 | [C,C]2 [D,C]2 [E,C]2 [C,C]2 | %6
 [E,C]3 [F,C] [C,C]2 F,[D,B,] | [A,,C]2 D2 [C,C]2 [D,_B,]2 | [C,C]3 [C,B,] [C,A,]2 z2 | %9
 (B,A,G,)[C,C] [C,B,]4 | [F,A,]6 |] %11
V:4
 x2 | x8 | F,3 x5 | x8 | C3 x5 | x8 | x6 F, x | x2 (B,,=B,,) x4 | x8 | C,3 x5 | x6 |] %11

